icons/1_Primary/Red Hat.svg

<svg width="1024" height="1024" viewBox="0 0 1024 1024" fill="none" xmlns="http://www.w3.org/2000/svg">
<g clip-path="url(#clip0_2_3303)">
<path d="M512 1024C794.77 1024 1024 794.77 1024 512C1024 229.23 794.77 0 512 0C229.23 0 0 229.23 0 512C0 794.77 229.23 1024 512 1024Z" fill="#FF837D"/>
<path d="M606.081 544.61C643.081 544.61 696.651 536.96 696.651 492.79C696.761 489.382 696.452 485.973 695.731 482.64L673.681 386.64C668.591 365.52 664.121 355.92 627.141 337.38C598.441 322.67 535.921 298.38 517.431 298.38C500.211 298.38 495.211 320.64 474.671 320.64C454.911 320.64 440.231 304.02 421.741 304.02C403.991 304.02 392.421 316.16 383.481 341.11C383.481 341.11 358.601 411.5 355.401 421.7C354.893 423.576 354.674 425.518 354.751 427.46C354.751 454.81 462.161 544.52 606.071 544.52M702.321 510.78C705.057 520.594 706.772 530.664 707.441 540.83C707.441 582.37 660.861 605.43 599.651 605.43C461.301 605.49 340.051 524.18 340.051 470.43C340.051 462.971 341.572 455.591 344.521 448.74C294.801 451.17 230.391 460.08 230.391 517.12C230.391 610.48 451.091 725.66 625.831 725.66C759.831 725.66 793.591 664.89 793.591 616.9C793.591 579.16 761.051 536.31 702.371 510.73" fill="white"/>
</g>
<defs>
<clipPath id="clip0_2_3303">
<rect width="1024" height="1024" fill="white"/>
</clipPath>
</defs>
</svg>

<svg xmlns="http://www.w3.org/2000/svg" width="1024" height="1024" fill="none">
   <g clip-path="url(#a)">
      <path fill="#FF837D" d="M512 1024c282.77 0 512-229.23 512-512S794.77 0 512 0 0 229.23 0 512s229.23 512 512 512Z"/>
      <path fill="#fff" d="M606.081 544.61c37 0 90.57-7.65 90.57-51.82a41.652 41.652 0 0 0-.92-10.15l-22.05-96c-5.09-21.12-9.56-30.72-46.54-49.26-28.7-14.71-91.22-39-109.71-39-17.22 0-22.22 22.26-42.76 22.26-19.76 0-34.44-16.62-52.93-16.62-17.75 0-29.32 12.14-38.26 37.09 0 0-24.88 70.39-28.08 80.59a19.135 19.135 0 0 0-.65 5.76c0 27.35 107.41 117.06 251.32 117.06m96.25-33.74a148.116 148.116 0 0 1 5.12 30.05c0 41.54-46.58 64.6-107.79 64.6-138.35.06-259.6-81.25-259.6-135a54.858 54.858 0 0 1 4.47-21.69c-49.72 2.43-114.13 11.34-114.13 68.38 0 93.36 220.7 208.54 395.44 208.54 134 0 167.76-60.77 167.76-108.76 0-37.74-32.54-80.59-91.22-106.17"/>
   </g>
   <defs>
      <clipPath id="a">
         <path fill="#fff" d="M0 0h1024v1024H0z"/>
      </clipPath>
   </defs>
</svg>
